X: 7078
T: Christchurch Cathedral
R: polka
M: 2/4
K: Gmajor
B>^A Bc d2 G2|G2 A2 F3 G|EF G2 D2 GB|cd/c/ BG B2 A2|
B>^A Bc d2 G2|G2 AG F2 G2|EF G2 D3 G|G2 F2 G4||
F>^E FG A2 d2|d2 AG F2 D2|B>^A Bc d2 g2|dc Bc A4|
B>^A Bc d2 G2|G2 A2 F2 G2|EF GE D3 G|G2 F2 G4||

